svg/s/MM.svg

<svg width="16" height="12" viewBox="0 0 16 12" fill="none" xmlns="http://www.w3.org/2000/svg">
<mask id="mask0" mask-type="alpha" maskUnits="userSpaceOnUse" x="0" y="0" width="16" height="12">
<rect width="16" height="12" fill="white"/>
</mask>
<g mask="url(#mask0)">
<path fill-rule="evenodd" clip-rule="evenodd" d="M0 8H16V12H0V8Z" fill="#E31D1C"/>
<path fill-rule="evenodd" clip-rule="evenodd" d="M0 4H16V8H0V4Z" fill="#5EAA22"/>
<path fill-rule="evenodd" clip-rule="evenodd" d="M0 0H16V4H0V0Z" fill="#FFD018"/>
<path fill-rule="evenodd" clip-rule="evenodd" d="M8.03097 7.98773L5.45553 9.62521L6.31938 6.75868L4.48242 4.88585L7.015 4.83053L8.13548 2.00061L9.15651 4.86791L11.6831 4.91201L9.78441 6.81917L10.671 9.54616L8.03097 7.98773Z" fill="#F7FCFF"/>
</g>
</svg>

<svg width="16" height="12" fill="none" xmlns="http://www.w3.org/2000/svg">
  <mask id="a" maskUnits="userSpaceOnUse" x="0" y="0" width="16" height="12">
    <path fill="#fff" d="M0 0h16v12H0z"/>
  </mask>
  <g mask="url(#a)" fill-rule="evenodd" clip-rule="evenodd">
    <path d="M0 8h16v4H0V8z" fill="#E31D1C"/>
    <path d="M0 4h16v4H0V4z" fill="#5EAA22"/>
    <path d="M0 0h16v4H0V0z" fill="#FFD018"/>
    <path d="M8.031 7.988L5.456 9.625l.863-2.866-1.837-1.873 2.533-.055L8.135 2l1.022 2.867 2.526.044-1.899 1.907.887 2.727-2.64-1.558z" fill="#F7FCFF"/>
  </g>
</svg>
